media/content-images/logo.svg

<svg width="84" height="36" viewBox="0 0 84 36" fill="none" xmlns="http://www.w3.org/2000/svg">
<path d="M3.24202 22.0864L3.33208 24.1802V35.0545H0V3.46725L1.71107 1.62109H18.3715V4.95317H3.15197L3.33208 7.04698V16.638L3.15197 18.3265H3.37711L17.651 11.2571L19.1369 14.229L3.24202 22.0864Z" fill="white"/>
<path d="M26.0262 35.0544H22.7842V1.62101H25.9361L26.1163 18.3264L26.0262 35.0544ZM35.8874 15.8724C34.8067 15.8724 33.771 15.6698 32.8029 15.242C31.8348 14.8143 30.9793 14.2514 30.2814 13.5309C29.5609 12.8105 28.9981 11.955 28.5928 11.0094C28.165 10.0638 27.9624 9.02814 27.9624 7.90243C27.9624 6.82176 28.165 5.80863 28.5928 4.84052C29.0206 3.89493 29.5834 3.0394 30.2814 2.31895C31.0018 1.5985 31.8348 1.01313 32.8029 0.60788C33.771 0.202627 34.8067 0 35.8874 0C36.9906 0 38.0262 0.202627 38.9943 0.630394C39.9399 1.05816 40.7954 1.62101 41.5159 2.34146C42.2363 3.06191 42.8217 3.91745 43.2269 4.86304C43.6547 5.83114 43.8573 6.84427 43.8573 7.92495C43.8573 9.02814 43.6547 10.0638 43.2269 11.0319C42.7992 12 42.2363 12.833 41.5159 13.5535C40.7954 14.2739 39.9399 14.8593 38.9943 15.2645C38.0262 15.6698 36.9906 15.8724 35.8874 15.8724ZM41.9436 35.7974L44.6228 33.8161L34.9868 20.848L32.893 18.349L30.3039 20.2401L41.9436 35.7974ZM35.8874 3.33208C35.2345 3.33208 34.6266 3.44465 34.0862 3.69231C33.5234 3.93996 33.0506 4.27767 32.6228 4.68292C32.1951 5.11069 31.8799 5.58349 31.6547 6.14634C31.4296 6.70919 31.317 7.29456 31.317 7.90243C31.317 8.55534 31.4296 9.16322 31.6547 9.72607C31.8799 10.2889 32.2176 10.7842 32.6228 11.212C33.0506 11.6398 33.5234 11.955 34.0862 12.1801C34.6491 12.4052 35.2345 12.5178 35.8874 12.5178C36.5403 12.5178 37.1481 12.4052 37.6885 12.1801C38.2513 11.955 38.7241 11.6173 39.1519 11.212C39.5797 10.7842 39.8949 10.3114 40.1425 9.72607C40.3902 9.16322 40.5027 8.55534 40.5027 7.90243C40.5027 7.29456 40.3902 6.70919 40.1425 6.14634C39.8949 5.58349 39.5572 5.11069 39.1519 4.68292C38.7241 4.25516 38.2513 3.93996 37.6885 3.69231C37.1256 3.46717 36.5403 3.33208 35.8874 3.33208Z" fill="white"/>
<path d="M62.8363 4.95317H46.1309V1.62109H62.8363V4.95317ZM46.1084 20.0151V16.6605H62.8138V19.9926H46.1084V20.0151ZM62.8363 35.0545H46.1309V31.7224H62.8363V35.0545Z" fill="white"/>
<path d="M84.0004 4.95317H67.295V1.62109H84.0004V4.95317ZM67.2725 20.0151V16.6605H83.9779V19.9926H67.2725V20.0151ZM84.0004 35.0545H67.295V31.7224H84.0004V35.0545Z" fill="white"/>
</svg>

<svg width="84" height="36" fill="none" xmlns="http://www.w3.org/2000/svg"><path d="M3.242 22.086l.09 2.094v10.874H0V3.467l1.711-1.846h16.66v3.332H3.153l.18 2.094v9.591l-.18 1.688h.225l14.274-7.069 1.486 2.972-15.895 7.857zm22.784 12.968h-3.242V1.621h3.152l.18 16.705-.09 16.728zm9.861-19.182a7.563 7.563 0 01-3.084-.63c-.968-.428-1.824-.99-2.522-1.711a8 8 0 01-1.688-2.522c-.428-.945-.63-1.98-.63-3.107 0-1.08.202-2.093.63-3.061a8.841 8.841 0 011.688-2.522A7.815 7.815 0 0132.803.608 7.934 7.934 0 0135.887 0c1.104 0 2.14.203 3.107.63.946.428 1.801.991 2.522 1.711a8.066 8.066 0 011.71 2.522c.429.968.631 1.981.631 3.062 0 1.103-.202 2.139-.63 3.107a8.19 8.19 0 01-1.711 2.521 8.066 8.066 0 01-2.522 1.711 7.963 7.963 0 01-3.107.608zm6.057 19.925l2.679-1.98-9.636-12.969-2.094-2.499-2.59 1.891 11.64 15.557zM35.887 3.332c-.653 0-1.26.113-1.8.36a5.087 5.087 0 00-1.464.99 4.267 4.267 0 00-.968 1.464 4.687 4.687 0 00-.338 1.756c0 .653.113 1.261.338 1.824.225.563.563 1.058.968 1.486.428.428.9.743 1.463.968a4.75 4.75 0 001.801.338c.653 0 1.261-.113 1.801-.338.563-.225 1.036-.563 1.464-.968.428-.428.743-.9.99-1.486a4.47 4.47 0 00.36-1.824c0-.607-.112-1.193-.36-1.756a5.084 5.084 0 00-.99-1.463 4.672 4.672 0 00-1.464-.99 4.76 4.76 0 00-1.8-.36zm26.949 1.621H46.131V1.621h16.705v3.332zM46.108 20.015V16.66h16.706v3.333H46.108v.022zm16.728 15.04H46.131v-3.333h16.705v3.332zM84 4.953H67.295V1.621H84v3.332zM67.272 20.015V16.66h16.706v3.333H67.272v.022zM84 35.055H67.295v-3.333H84v3.332z" fill="#fff"/></svg>
